teeny/outline/safe.svg

<svg width="15" height="15" viewBox="0 0 15 15" fill="none" xmlns="http://www.w3.org/2000/svg">
<path d="M2.5 3V6M2.5 8V11M2.5 13.5V15M12.5 13.5V15M9.5 9.5C8.39543 9.5 7.5 8.60457 7.5 7.5C7.5 6.39543 8.39543 5.5 9.5 5.5C10.6046 5.5 11.5 6.39543 11.5 7.5C11.5 8.60457 10.6046 9.5 9.5 9.5ZM1.5 0.5H13.5C14.0523 0.5 14.5 0.947715 14.5 1.5V12.5C14.5 13.0523 14.0523 13.5 13.5 13.5H1.5C0.947716 13.5 0.5 13.0523 0.5 12.5V1.5C0.5 0.947715 0.947715 0.5 1.5 0.5Z" stroke="black"/>
</svg>

<svg viewBox="0 0 15 15" xmlns="http://www.w3.org/2000/svg"><path fill="none" stroke="#000" d="M2.5 3v3m0 2v3m0 2.5V15m10-1.5V15m-3-5.5c-1.11 0-2-.9-2-2 0-1.11.89-2 2-2 1.1 0 2 .89 2 2 0 1.1-.9 2-2 2Zm-8-9h12c.55 0 1 .44 1 1v11c0 .55-.45 1-1 1h-12c-.56 0-1-.45-1-1v-11c0-.56.44-1 1-1Z"/></svg>
